!!!!SEGMENT: Gom1006a-Missa_Media_vita-Kyrie.krn
!!!id: Gom1006a
!!!AGN: Mass; Kyrie
!!!SCT: Schmidt-Görg (1954)
!!!voices: 5
!!!COM: Nicolas Gombert
!!!OPR: Missa Media Vita
!!!OTL: Kyrie
**kern	**kern	**kern	**kern	**kern
*part5	*part4	*part3	*part2	*part1
*staff5	*staff4	*staff3	*staff2	*staff1
*I"Bassus	*I"Tenor	*I"Altus II	*I"Altus I	*I"Superius
*I'B	*I'T	*I'A. II	*I'A. I	*I'S
*clefF4	*clefGv2	*clefGv2	*clefGv2	*clefG2
*k[b-]	*k[b-]	*k[b-]	*k[b-]	*k[b-]
*F:	*F:	*F:	*F:	*F:
*M2/1	*M2/1	*M2/1	*M2/1	*M2/1
*met(C|)	*met(C|)	*met(C|)	*met(C|)	*met(C|)
!!section: Kyrie I
!!!OMD: Kyrie I
=1	=1	=1	=1	=1
0r	0r	0D	0r	0r
=2	=2	=2	=2	=2
0r	0r	1E	1r	0r
.	.	1F	[1d	.
=3	=3	=3	=3	=3
0r	0G	0G	1d]	0r
.	.	.	1e	.
=4	=4	=4	=4	=4
0r	1A	1C	1f	0r
.	1B-y	1D	[1g	.
=5	=5	=5	=5	=5
0r	1.c	1.E	2g]	0g
.	.	.	4c	.
.	.	.	4d	.
.	.	.	4e	.
.	.	.	4f	.
.	2B-y	[2D	[2g	.
=6	=6	=6	=6	=6
0r	1A	4D]	4g]	1a
.	.	4C	4f	.
.	.	2C	2f	.
.	2G	2D	2g	1b-y
.	2B-y	[2G	2d	.
=7	=7	=7	=7	=7
0r	1A	2G]	2e	1.cc
.	.	2F	4c	.
.	.	.	4d	.
.	1G	1G	4e	.
.	.	.	4f	.
.	.	.	[2g	2b-y
=8	=8	=8	=8	=8
1r	1r	1D	2g]	1a
.	.	.	2f#i	.
[1GG	2r	2E	2g	[1g
.	[2D	[2D	2G	.
=9	=9	=9	=9	=9
1GG]	2D]	2D]	1B-y	1g]
.	1E	4C	.	.
.	.	4BB-y	.	.
1AA	.	1AA	1c	1r
.	[2F	.	.	.
=10	=10	=10	=10	=10
1BB-y	2F]	1r	1B-y	1d
.	2.G	.	.	.
[1C	.	[1GG	1G	2e
.	4F	.	.	.
.	4E	.	.	4c
.	4D	.	.	4d
=11	=11	=11	=11	=11
2C]	2C	1GG]	0r	4e
.	.	.	.	4f
2BB-y	2D	.	.	1g
1AA	2E	1AA	.	.
.	2C	.	.	2f#i
=12	=12	=12	=12	=12
2.GG	2D	1.BB-y	0d	1g
.	1G	.	.	.
4AA	.	.	.	.
4BB-y	.	.	.	1r
4C	.	.	.	.
[2D	2F	2AA	.	.
=13	=13	=13	=13	=13
2D]	1G	2BB-y	1e	1r
2C	.	2C	.	.
1D	1F	1AA	1f	1a
=14	=14	=14	=14	=14
1GG	0D	2GG	2g	1b-y
.	.	2BB-y	2G	.
1r	.	1F	1d	2a
.	.	.	.	2f
=15	=15	=15	=15	=15
0r	1r	2E	2c	2g
.	.	2D	2B-y	2.b-y
.	1D	1F	2.d	.
.	.	.	.	4a
.	.	.	.	[2a
.	.	.	4c	.
=16	=16	=16	=16	=16
1GG	1G	2D	1B-y	2a]
.	.	2E	.	2g
1D	2F	2F	[1A	1a
.	2D	2FF	.	.
=17	=17	=17	=17	=17
2C	2E	1C	1A]	0r
2AA	2F	.	.	.
2BB-y	2D	2BB-y	1r	.
[2D	[2F	2AA	.	.
=18	=18	=18	=18	=18
2D]	2F]	4FF	1A	1r
.	.	4GG	.	.
2C	2E	2.AA	.	.
1BB-y	2F	.	1d	1d
.	.	4FF	.	.
.	2D	2GG	.	.
=19	=19	=19	=19	=19
1AA	2E	1AA	2c	1a
.	2C	.	2A	.
2r	1G	2r	2B-y	2g
2GG	.	2BB-y	[2d	[2b-y
=20	=20	=20	=20	=20
1D	1F	1F	4d]	4b-]
.	.	.	4c	4a
.	.	.	4A	1a
.	.	.	4B-y	.
1C	1r	2.E	2.c	.
.	.	.	.	2g
.	.	4D	4d	.
=21	=21	=21	=21	=21
2AA	2r	4C	2e	0a
.	.	4BB-y	.	.
1D	2D	4AA	1f	.
.	.	4GG	.	.
.	2A	2FF	.	.
2C	2A	[2AA	2e	.
=22	=22	=22	=22	=22
2BB-y	1B-y	4AA]	1d	2r
.	.	4GG	.	.
2GG	.	1GG	.	2d
1AA	1A	.	2c	1a
.	.	2FF#i	2A	.
=23	=23	=23	=23	=23
1GG	[0D	2GG	2d	1b-y
.	.	2BB-y	2G	.
1r	.	1F	2.d	2a
.	.	.	.	2f
.	.	.	4c	.
=24	=24	=24	=24	=24
1GG	0D]	1.D	4B-y	2g
.	.	.	4A	.
.	.	.	1G	2.b-y
1D	.	.	.	.
.	.	.	.	4a
.	.	2D	2F	[2a
=25	=25	=25	=25	=25
1E	1r	2BB-y	4G	4a]
.	.	.	4A	4g
.	.	2GG	4B-y	1g
.	.	.	4G	.
2D	1D	1D	1A	.
2F	.	.	.	2f#i
=26	=26	=26	=26	=26
1E	2G	2E	2G	1g
.	2G	2C	1g	.
1D	1A	2.D	.	2r
.	.	.	2f	2d
.	.	4C	.	.
=27	=27	=27	=27	=27
2r	1G	4BB-y	2d	1g
.	.	4GG	.	.
2GG	.	1G	2e	.
1D	1r	.	2.d	1a
.	.	2F	.	.
.	.	.	4c	.
=28	=28	=28	=28	=28
1E	1r	2G	4B-y	2g
.	.	.	4A	.
.	.	2GG	1G	1b-y
2D	1D	1D	.	.
2F	.	.	2F	[2a
=29	=29	=29	=29	=29
1E	2G	2E	2G	4a]
.	.	.	.	4g
.	2G	2C	2E	1g
1D	1A	2.D	2F	.
.	.	.	[2D	2f#i
.	.	4C	.	.
=30	=30	=30	=30	=30
0GG	2G	4BB-y	2D]	[0gl
.	.	4GG	.	.
.	2E	1C	2G	.
.	1D	.	1d	.
.	.	2BB-y	.	.
=31	=31	=31	=31	=31
1C	2C	2.C	1e	0g_
.	2.G	.	.	.
.	.	4AA	.	.
2GG	.	2BB-y	2d	.
.	4F	.	.	.
[2C	4E	2C	[2e	.
.	4D	.	.	.
=32	=32	=32	=32	=32
2C]	2C	[0GGl	4e]	0g_
.	.	.	4d	.
2BB-y	2D	.	1d	.
1C	1E	.	.	.
.	.	.	2c	.
=	=	=	=	=
00GG	00D	00GG]	00d	00g]
=||	=||	=||	=||	=||
*M2/1	*M2/1	*M2/1	*M2/1	*M2/1
*met(C|)	*met(C|)	*met(C|)	*met(C|)	*met(C|)
!!section: Christe
!!!OMD: Christe
2r	1r	1GG	0r	0r
1G	.	.	.	.
.	1D	1D	.	.
2F	.	.	.	.
=33	=33	=33	=33	=33
2D	1A	1.D	1r	1r
2F	.	.	.	.
1E	2B-y	.	1G	2r
.	2G	2C	.	[2g
=34	=34	=34	=34	=34
1D	1A	2D	1d	2g]
.	.	2AA	.	2f
1r	2r	2BB-y	[1d	2d
.	2D	[2AA	.	2f
=35	=35	=35	=35	=35
1AA	1A	4AA]	2d]	1e
.	.	4GG	.	.
.	.	2EE	2c	.
1D	[1A	1FF	2d	1d
.	.	.	2A	.
=36	=36	=36	=36	=36
2C	2A]	2EE	2c	2r
2BB-y	2G	2DD	2.d	2d
1AA	2A	2EE	.	1a
.	.	.	4c	.
.	2E	[2AA	2c	.
=37	=37	=37	=37	=37
1D	1F	2AA]	2d	1.a
.	.	2.D	1f	.
2r	2D	.	.	.
.	.	4C	.	.
2GG	[2G	2BB-y	2e	2g
=38	=38	=38	=38	=38
1D	2G]	1AA	2.d	1a
.	2F	.	.	.
.	.	.	4c	.
1D	2D	1FF	2B-y	1r
.	2F	.	2A	.
=39	=39	=39	=39	=39
1C	1E	2r	1c	1.g
.	.	2GG	.	.
1D	[1D	1D	1A	.
.	.	.	.	2f
=40	=40	=40	=40	=40
1BB-y	1D]	1.D	2r	4d
.	.	.	.	4e
.	.	.	2D	4f
.	.	.	.	4d
2AA	1r	.	2A	1e
2C	.	2C	[2A	.
=41	=41	=41	=41	=41
1BB-y	2r	2.D	2A]	2r
.	1d	.	2G	2d
.	.	4E	.	.
[1AA	.	2F	2.A	1a
.	2c	[2E	.	.
.	.	.	4B-y	.
=42	=42	=42	=42	=42
1AA]	2A	2E]	4c	1a
.	.	.	4d	.
.	2c	2C	2.e	.
1r	1B-y	1D	.	1g
.	.	.	4d	.
.	.	.	[2d	.
=43	=43	=43	=43	=43
1AA	2.A	1E	2d]	1a
.	.	.	2c	.
.	4G	.	.	.
1BB-y	2F	1D	2d	1r
.	[2G	.	2D	.
=44	=44	=44	=44	=44
2C	2G]	2r	2E	1r
1D	2F	2AA	2F	.
.	1E	2BB-y	2G	2r
2C	.	2C	[2A	2e
=45	=45	=45	=45	=45
1BB-y	2r	1D	4A]	2f
.	.	.	4G	.
.	2D	.	1G	2g
1AA	2E	2C	.	2a
.	2F	2AA	2F	2cc
=46	=46	=46	=46	=46
2GG	2G	2BB-y	2D	2b-y
2C	2A	2C	2E	1a
2.BB-y	2D	2D	2F	.
.	[2d	2BB-y	2G	2g
4GG	.	.	.	.
=47	=47	=47	=47	=47
2D	2d]	1AA	2F	2.a
2AA	2c	.	2E	.
.	.	.	.	4g
2BB-y	2d	2r	2D	2f
2C	2c	2AA	2E	2e
=48	=48	=48	=48	=48
2D	2A	2AA	2F	1d
2BB-y	2B-y	2.D	2D	.
2AA	4c	.	1E	[1a
.	4B-y	4C	.	.
2AA	4A	2C	.	.
.	4G	.	.	.
=49	=49	=49	=49	=49
1.D	2F	2D	2D	1a]
.	2D	1F	2A	.
.	[1G	.	2B-y	1r
2C	.	[2E	2c	.
=50	=50	=50	=50	=50
1D	2G]	4E]	1A	2r
.	.	4D	.	.
.	2F	1D	.	2d
1E	1G	.	1r	[1g
.	.	2C#i	.	.
=51	=51	=51	=51	=51
1D	1A	1D	2r	2g]
.	.	.	2A	2f
1GG	[1G	1BB-y	[1d	2g
.	.	.	.	[2b-y
=52	=52	=52	=52	=52
0r	2G]	2r	2d]	2b-]
.	2A	2AA	2c	2.a
.	1B-y	[1D	2f	.
.	.	.	.	4g
.	.	.	2d	2g
=53	=53	=53	=53	=53
1AA	1A	2D]	1e	0a
.	.	2C	.	.
[1D	2r	2D	2d	.
.	2D	[2F	2A	.
=54	=54	=54	=54	=54
2D]	2G	2F]	2B-y	1r
2C	1G	2.E	2c	.
1D	.	.	2A	2r
.	.	4D	.	.
.	2F	[2D	[2B-y	2d
=55	=55	=55	=55	=55
1E	1G	2D]	2B-]	1.g
.	.	2C	4A	.
.	.	.	4G	.
1D	2r	[1D	1A	.
.	2D	.	.	2f
=56	=56	=56	=56	=56
1.GG	1.G	2D]	1B-y	2g
.	.	2GG	.	1b-y
.	.	[1D	1r	.
2D	2F	.	.	[2a
=57	=57	=57	=57	=57
1E	1G	2D]	2r	4a]
.	.	.	.	4g
.	.	2C	2G	1g
1D	1A	2D	[1d	.
.	.	2AA	.	2f#i
=58	=58	=58	=58	=58
2GG	[0Gl	2BB-y	2d]	[0gl
1C	.	2GG	1e	.
.	.	1C	.	.
4BB-y	.	.	4d	.
4AA	.	.	4c	.
=	=	=	=	=
00GG	00G]	00BB-y	00d	00g]
=||	=||	=||	=||	=||
*M2/1	*M2/1	*M2/1	*M2/1	*M2/1
*met(C|)	*met(C|)	*met(C|)	*met(C|)	*met(C|)
!!section: Kyrie II
!!!OMD: Kyrie II
0r	1r	0r	1G	0r
.	1D	.	2A	.
.	.	.	2B-y	.
=59	=59	=59	=59	=59
0r	2E	0r	1c	1r
.	2F	.	.	.
.	[1G	.	2.B-y	1d
.	.	.	4A	.
=60	=60	=60	=60	=60
0r	2G]	1r	4B-y	2e
.	.	.	4c	.
.	2F	.	1d	2f
.	1E	1GG	.	2.g
.	.	.	2c#i	.
.	.	.	.	8fL
.	.	.	.	8eJ
=61	=61	=61	=61	=61
2r	1D	2AA	1d	2f
2GG	.	2BB-y	.	2g
2AA	2C	2C	1r	2e
2BB-y	2D	2BB-y	.	[2d
=62	=62	=62	=62	=62
1.C	1E	2.GG	1G	4d]
.	.	.	.	4c
.	.	.	.	2c
.	.	8FFL	.	.
.	.	8EEJ	.	.
.	1D	2FF	2A	1d
2BB-y	.	2GG	2B-y	.
=63	=63	=63	=63	=63
1AA	2E	1AA	2.c	1r
.	2F	.	.	.
.	.	.	8B-yL	.
.	.	.	8AJ	.
2GG	2.G	1r	2B-y	1g
[2C	.	.	4c	.
.	4F	.	4B-y	.
=64	=64	=64	=64	=64
2C]	2E	2r	4A	2a
.	.	.	4G	.
2BB-y	2D	2D	1G	2b-y
1AA	1C	2E	.	1cc
.	.	2F	2F	.
=65	=65	=65	=65	=65
1GG	1D	2.G	1B-y	2.b-y
.	.	4F	.	4a
1r	2r	2E	1r	2g
.	2F	[2D	.	2f
=66	=66	=66	=66	=66
1r	2G	2D]	1r	1e
.	2A	2C	.	.
1BB-y	2.B-y	1D	2r	1d
.	.	.	2d	.
.	4A	.	.	.
=67	=67	=67	=67	=67
2C	2G	2C	2e	1r
2D	2F	4BB-y	2f	.
.	.	4AA	.	.
2E	2B-y	1GG	2g	2r
2C	2c	.	2e	[2g
=68	=68	=68	=68	=68
1D	2.A	1r	1d	2g]
.	.	.	.	2f
.	8GL	.	.	.
.	8FJ	.	.	.
2C	2E	2r	1r	1g
2BB-y	2D	[2D	.	.
=69	=69	=69	=69	=69
1AA	1A	2D]	1r	2f
.	.	2C	.	2e
2r	2B-y	2.D	2r	1d
[2D	2A	.	[2f	.
.	.	4C	.	.
=70	=70	=70	=70	=70
2D]	1G	2BB-y	2f]	0r
2C	.	2C	2e	.
1D	1F	1AA	2f	.
.	.	.	[2d	.
=71	=71	=71	=71	=71
2GG	2G	0r	2d]	2r
2AA	2E	.	2c	2.a
2BB-y	2.F	.	2d	.
.	.	.	.	4g
2C	.	.	[2c	2g
.	4E	.	.	.
=72	=72	=72	=72	=72
2FF	1F	1AA	2c]	2a
1F	.	.	2d	2f
.	1C	1GG	2.c	2.g
2E	.	.	.	.
.	.	.	8B-yL	8fL
.	.	.	8cJ	8eJ
=73	=73	=73	=73	=73
2D	2r	2.AA	2d	2f
2AA	1A	.	2.c	2.e
.	.	8GGL	.	.
.	.	8FFJ	.	.
2C	.	2EE	.	.
.	.	.	4A	4d
2BB-y	2G	2DD	2B-y	[2d
=74	=74	=74	=74	=74
1AA	1A	1EE	2c	2d]
.	.	.	2A	2c#i
2r	2G	1r	2B-y	1d
[2D	2F	.	2A	.
=75	=75	=75	=75	=75
2D]	1E	0r	2B-y	2r
2C	.	.	2c	2.g
1D	2D	.	2B-y	.
.	.	.	.	4f
.	2F	.	[2A	2f
=76	=76	=76	=76	=76
2C	2E	2r	4A]	1g
.	.	.	4G	.
2BB-y	2.D	2GG	1G	.
1AA	.	2C	.	1a
.	4C	.	.	.
.	2C	2AA	2F#i	.
=77	=77	=77	=77	=77
1GG	1D	2.BB-y	2G	2d
.	.	.	2d	1b-y
.	.	4AA	.	.
1r	1r	2GG	2g	.
.	.	2C	2e	[2a
=78	=78	=78	=78	=78
0r	2r	2D	2f	2a]
.	2G	2BB-y	4e	2.g
.	.	.	4d	.
.	2c	1AA	2e	.
.	.	.	.	4e
.	2A	.	2c	2f
=79	=79	=79	=79	=79
1GG	2.B-y	1GG	1d	1g
.	4A	.	.	.
2C	2G	2r	2e	1r
2AA	[2A	2AA	2c	.
=80	=80	=80	=80	=80
1BB-y	2A]	2D	2f	2r
.	2.G	2BB-y	2d	2g
1AA	.	1C	2e	2cc
.	4F	.	.	.
.	4F	.	2c	2a
.	4E	.	.	.
=81	=81	=81	=81	=81
1GG	1G	2BB-y	1d	2.b-y
.	.	2GG	.	.
.	.	.	.	4a
1r	2r	2C	2e	2g
.	2D	2AA	2f	[2a
=82	=82	=82	=82	=82
1r	2G	2BB-y	2d	4a]
.	.	.	.	4g
.	2E	2C	2e	1g
1D	1F	1AA	4d	.
.	.	.	4A	.
.	.	.	[2d	2f#i
=83	=83	=83	=83	=83
2G	1E	2r	4d]	1g
.	.	.	4B-y	.
2E	.	2GG	2c	.
1F	2r	2C	2A	2f
.	2D	2AA	[2d	[2a
=84	=84	=84	=84	=84
1E	2G	2BB-y	4d]	4a]
.	.	.	4c	4g
.	2E	2GG	2c	1g
1D	1A	1AA	1d	.
.	.	.	.	2f#i
=85	=85	=85	=85	=85
2GG	1D	[0GGl	2B-y	[0gl
2BB-y	.	.	2d	.
2.E-i	2.G	.	2c	.
.	.	.	2B-y	.
4D	4F	.	.	.
=86	=86	=86	=86	=86
2C	2E	0GG_	2c	0g_
2BB-y	2D	.	2d	.
1C	1E	.	1c	.
=87	=87	=87	=87	=87
00GGl	00Dl	00GG]	00B-yl	00g]
==	==	==	==	==
*-	*-	*-	*-	*-
!!!system-decoration: [*]
!!!RDF**kern: i = editorial accidental
!!!RDF**kern: l = terminal long
!!!ENC: Benjamin Ory
!!!END: 2022/4/13
!!!EED: Benjamin Ory
!!!EEV: 2022/04/13
!!!YEC: Copyright 2022 Benjamin Ory, All Rights Reserved
!!!ONB: Translated from MusicXML on 2022/04/13
